X:1
T: Union Street Bridge
C:Alexander Walker
R:Strathspey
Q: 128
K:F#m
M:4/4
L:1/16
|:E2|C3E A3F c3F AGFE|B,3E G3E B3E GFEB,|C3F A3F c3F A3B|c3e B3G F4 F2E2|
C3E A3F c3F AGFE|B,3E G3E B3E GFEB,|C3F A3F c3F A3B|c3e B3G F4 F2G2|
F3f agfd e3E G3B|C3F A3F c3F A3F|fg3 ef3 c3e G3B|c3e B3G F4 F2e2|
cF3 A3F BE3 G3E|F3G A3B c4 ce3|f3g a3f g3e f3c|B3G e3G F4 F2:|
